!!!Genre:	Skotshne
!!!Mode:	Minor
!!!Listening/dance:	dance
!!!One_Mode:	no
**kern
*I"P1
*clefG2
*k[b-e-]
*g:
*M2/4
*>A
=1
16gLL
16a
16b-
16ccJJ
8ddL
8ddJ
=2
8ddL
8dd
8dd
8ddJ
=3
16ddLL
16ffJ
8ee-J
16ee-LL
16ffJ
8ddJ
=4
8ddL
8ccJ
4cc
=5
16ccLL
16ee-J
8ddJ
16ddLL
16ee-J
8ccJ
=6
8ccL
8gJ
4g
=7
8b-L
8b-
8cc
8ccJ
=8
8ddL
8ddJ
16ffLL
16ee-
16dd
16ccJJ
=9
8b-L
8b-
8a
8aJ
=10
8gL
8ggJ
4gg
=11
16gLL
16a
16b-
16ccJJ
8ddL
8ggJ
=12
8ddL
8gg
8dd
8ddJ
=13
8ffL
8ee-
8dd
8ccJ
=14
8dd
4cc
8cc
=15
8ee-L
8dd
8dd
8ccJ
=16
8gg
4g
8g
=17
8b-L
8b-
8cc
8ccJ
=18
8ddL
8ddJ
16ffLL
16ee-
16dd
16ccJJ
=19
8b-L
8b-
8a
8aJ
=20
2g
*>bM
*c:
=21||
*>B
4gg
4dd
=22
8ee-
4dd
8dd
=23
8ggL
8gg
8dd
8ddJ
=24
8ee-
4dd
8dd
=25
16ggLL
16gg
16gg
16ggJJ
16ffLL
16ff
16ff
16ffJJ
=26
16ee-LL
16ee-
16ee-
16ee-JJ
16ddLL
16dd
16dd
16ddJJ
=27
8ccL
8ccJ
16ee-LL
16ff
16ee-
16ddJJ
=28
2cc
*>eM
*>bM
*B-:
=29
4ff
4cc
=30
8dd
4cc
8cc
=31
8ffL
8ff
8cc
8ccJ
=32
8dd
4cc
8cc
=33
16ffLL
16ff
16ff
16ffJJ
16ee-LL
16ee-
16ee-
16ee-JJ
=34
16ddLL
16dd
16dd
16ddJJ
16ccLL
16cc
16cc
16ccJJ
=35
8b-L
8b-J
16ccLL
16b-
16cc
16ddJJ
=36
2b-
*>eM
*g:
=37!|:
*>C
8.aL
16b-Jk
8ccL
8ccJ
=38
8ccL
8cc
8cc
8ccJ
=39
8b-L
8dd
8b-
8ddJ
=40
8ccL
8ccJ
4cc
=41
8b-
4ee-
8dd
=42
8b-
4dd
8cc
=43
8g
4cc
16b-LL
16aJJ
=44
8gL
8aJ
4f
=45:|!
2g
==
*-
